assets/images/qr.svg

<svg xmlns="http://www.w3.org/2000/svg" width="164" height="164" fill="none" viewBox="0 0 164 164"><rect width="164" height="164" fill="#fff" opacity="0.1" rx="20"/><path fill="#fff" d="M75.75 88.09q-1.386 0-2.502-.54a6.3 6.3 0 0 1-1.926-1.476 6.9 6.9 0 0 1-1.26-2.07 6.9 6.9 0 0 1-.432-2.394q0-1.278.468-2.43.468-1.17 1.296-2.07a6 6 0 0 1 1.944-1.44 5.6 5.6 0 0 1 2.448-.54q1.368 0 2.484.558 1.134.558 1.926 1.494.81.936 1.242 2.088.45 1.152.45 2.358 0 1.278-.468 2.448a6.7 6.7 0 0 1-1.278 2.07 6.1 6.1 0 0 1-1.962 1.422 5.7 5.7 0 0 1-2.43.522m.018-1.818q.972 0 1.728-.396a3.7 3.7 0 0 0 1.26-1.062q.522-.684.792-1.512.27-.846.27-1.692 0-.9-.288-1.746a4.4 4.4 0 0 0-.81-1.494 4 4 0 0 0-1.296-1.026 3.45 3.45 0 0 0-1.656-.396q-.972 0-1.728.396a3.8 3.8 0 0 0-1.278 1.08 5.1 5.1 0 0 0-.81 1.494 5.43 5.43 0 0 0 .018 3.438q.288.846.81 1.494.54.648 1.296 1.044a3.7 3.7 0 0 0 1.692.378m.252-2.718h1.944L81.852 88h-1.944zM83.94 88V75.22h5.562q.864 0 1.584.36t1.242.954q.54.594.828 1.332.306.738.306 1.512 0 .846-.306 1.62t-.882 1.332q-.558.558-1.314.81L93.966 88h-2.268l-2.772-4.446h-2.97V88zm2.016-6.228h3.528q.558 0 .99-.324a2.24 2.24 0 0 0 .684-.864q.252-.558.252-1.206 0-.666-.288-1.188a2.4 2.4 0 0 0-.756-.864q-.45-.324-.99-.324h-3.42z"/></svg>

<svg width="164" height="164" viewBox="0 0 164 164" fill="none" xmlns="http://www.w3.org/2000/svg">
<rect opacity="0.1" width="164" height="164" rx="20" fill="white"/>
<path d="M75.75 88.09C74.826 88.09 73.992 87.91 73.248 87.55C72.504 87.178 71.862 86.686 71.322 86.074C70.782 85.462 70.362 84.772 70.062 84.004C69.774 83.224 69.63 82.426 69.63 81.61C69.63 80.758 69.786 79.948 70.098 79.18C70.41 78.4 70.842 77.71 71.394 77.11C71.946 76.498 72.594 76.018 73.338 75.67C74.094 75.31 74.91 75.13 75.786 75.13C76.698 75.13 77.526 75.316 78.27 75.688C79.026 76.06 79.668 76.558 80.196 77.182C80.736 77.806 81.15 78.502 81.438 79.27C81.738 80.038 81.888 80.824 81.888 81.628C81.888 82.48 81.732 83.296 81.42 84.076C81.12 84.844 80.694 85.534 80.142 86.146C79.59 86.746 78.936 87.22 78.18 87.568C77.436 87.916 76.626 88.09 75.75 88.09ZM75.768 86.272C76.416 86.272 76.992 86.14 77.496 85.876C78 85.612 78.42 85.258 78.756 84.814C79.104 84.358 79.368 83.854 79.548 83.302C79.728 82.738 79.818 82.174 79.818 81.61C79.818 81.01 79.722 80.428 79.53 79.864C79.35 79.3 79.08 78.802 78.72 78.37C78.36 77.938 77.928 77.596 77.424 77.344C76.932 77.08 76.38 76.948 75.768 76.948C75.12 76.948 74.544 77.08 74.04 77.344C73.536 77.608 73.11 77.968 72.762 78.424C72.414 78.868 72.144 79.366 71.952 79.918C71.772 80.47 71.682 81.034 71.682 81.61C71.682 82.21 71.778 82.792 71.97 83.356C72.162 83.92 72.432 84.418 72.78 84.85C73.14 85.282 73.572 85.63 74.076 85.894C74.58 86.146 75.144 86.272 75.768 86.272ZM76.02 83.554H77.964L81.852 88H79.908L76.02 83.554ZM83.94 88V75.22H89.502C90.078 75.22 90.606 75.34 91.086 75.58C91.566 75.82 91.98 76.138 92.328 76.534C92.688 76.93 92.964 77.374 93.156 77.866C93.36 78.358 93.462 78.862 93.462 79.378C93.462 79.942 93.36 80.482 93.156 80.998C92.952 81.514 92.658 81.958 92.274 82.33C91.902 82.702 91.464 82.972 90.96 83.14L93.966 88H91.698L88.926 83.554H85.956V88H83.94ZM85.956 81.772H89.484C89.856 81.772 90.186 81.664 90.474 81.448C90.762 81.232 90.99 80.944 91.158 80.584C91.326 80.212 91.41 79.81 91.41 79.378C91.41 78.934 91.314 78.538 91.122 78.19C90.93 77.83 90.678 77.542 90.366 77.326C90.066 77.11 89.736 77.002 89.376 77.002H85.956V81.772Z" fill="white"/>
</svg>
